src/assets/duotone/Chainlink.svg

<svg width="24" height="24" viewBox="0 0 24 24"  xmlns="http://www.w3.org/2000/svg">
<path d="M3 8.17945V15.8295C3 16.4795 3.46 17.2595 4.03 17.5795L11.03 21.4695C11.56 21.7695 12.44 21.7695 12.97 21.4695L19.97 17.5795C20.54 17.2695 21 16.4795 21 15.8295V8.17945C21 7.52945 20.54 6.74945 19.97 6.42945L12.97 2.53945C12.44 2.23945 11.56 2.23945 11.03 2.53945L4.03 6.42945C3.46 6.73945 3 7.52945 3 8.17945Z" />
</svg>

<?xml version="1.0" encoding="UTF-8"?>
<svg width="24" height="24" viewBox="0 0 24 24" xmlns="http://www.w3.org/2000/svg">
 <path d="m3 8.1794v7.65c0 0.65 0.46 1.43 1.03 1.75l7 3.89c0.53 0.3 1.41 0.3 1.94 0l7-3.89c0.57-0.31 1.03-1.1 1.03-1.75v-7.65c0-0.65-0.46-1.43-1.03-1.75l-7-3.89c-0.53-0.3-1.41-0.3-1.94 0l-7 3.89c-0.57 0.31-1.03 1.1-1.03 1.75z"/>
</svg>
